X: 391
U:~=!turn!
M:C
L:1/8
K:F
f | cFAF DFCF | B,FA,F GG,G,f | cFAF DFCF | B,G,BG AFFf | cFAF DFCF |
(a/g/f/e/) fc Acfc | dBbg affg | afef dfcf | BfAf gGGB | AcFA BdGB | cegb aff |]


